X: 1417
T: Müstear Seyir
C: Erol Bingöl
O: Turkey
F: http://compmusic.upf.edu/node/140
N: mustear--seyir--duyek--1--erol_bingol
N: makam= mustear
N: form= seyir
N: usul= duyek = 8/4
M: 8/4
L: 1/16
K: C _1/4B _1/4e ^f 
Q: 1/4=120
%%MIDI tuningsystem comma53
B2 B4 d2 c2 B^A B4  | ^c2 d4 e2 =fe dc d4  | \
w:   |   | 
f2 g4 f2 g2 ag =f2 e2  | 
w:   | 
d2 e4 d^c =f2 ed d4  | f2 f4 g2 f3/2^e/ de f4  | \
w:   |   | 
fg a4 g2 =f3e d4  | 
w:   | 
^c2 d4 e2 =f4 e2 d2  | ^cd e4 dc dc B^A B4  | |


